lib/flags/m/316.svg

<svg xmlns="http://www.w3.org/2000/svg" fill="none" viewBox="0 0 20 15"><mask id="316_svg__a" width="20" height="15" x="0" y="0" mask-type="alpha" maskUnits="userSpaceOnUse"><path fill="#fff" d="M0 0H20V15H0z"/></mask><g mask="url(#316_svg__a)"><path fill="#C51918" fill-rule="evenodd" d="M0 0H20V15H0V0Z" clip-rule="evenodd"/><path fill="#4564F9" fill-rule="evenodd" d="M2 2H18V13H2V2Z" clip-rule="evenodd"/><path stroke="#CBDAFF" stroke-opacity=".12" stroke-width="1.25" d="M2.625 2.625H17.375V12.375H2.625V2.625Z"/><mask id="316_svg__b" width="16" height="11" x="2" y="2" mask-type="alpha" maskUnits="userSpaceOnUse"><path fill="#fff" fill-rule="evenodd" d="M2 2H18V13H2V2Z" clip-rule="evenodd"/><path stroke="#fff" stroke-width="1.25" d="M2.625 2.625H17.375V12.375H2.625V2.625Z"/></mask><g mask="url(#316_svg__b)"><path fill="#CCE0E5" stroke="#6D87FB" stroke-width="1.813" d="M10.25 3L10.656 2.1898L10.2405 1.98157L9.82899 2.19748L10.25 3ZM10.25 3C10.656 2.1898 10.6563 2.18994 10.6566 2.19008L10.6572 2.1904L10.6587 2.19116L10.6627 2.19314L10.674 2.19894L10.7102 2.21787C10.7402 2.23373 10.7817 2.25609 10.8329 2.28483C10.9353 2.34224 11.0775 2.4255 11.2465 2.53365C11.5825 2.74881 12.0334 3.06842 12.488 3.48597C13.374 4.29969 14.4062 5.61002 14.4062 7.34121C14.4062 9.0562 13.39 10.4403 12.5209 11.3234C12.0729 11.7787 11.628 12.1376 11.2959 12.3827C11.1291 12.5058 10.9888 12.6016 10.888 12.668C10.8376 12.7012 10.797 12.7271 10.7677 12.7454L10.7326 12.7672L10.7217 12.7738L10.7181 12.776L10.7167 12.7768L10.7161 12.7772C10.7159 12.7773 10.7156 12.7775 10.25 12M10.25 3C9.82899 2.19748 9.82873 2.19762 9.82845 2.19776L9.82784 2.19808L9.82639 2.19885L9.8226 2.20086L9.8115 2.20679L9.77576 2.22627C9.74612 2.24263 9.70505 2.26571 9.65418 2.29534C9.55255 2.35455 9.41112 2.4403 9.24309 2.55116C8.90879 2.77174 8.46014 3.09767 8.00777 3.51846C7.1309 4.33411 6.09375 5.64448 6.09375 7.34121C6.09375 9.02121 7.11427 10.4059 7.97543 11.2911C8.42151 11.7497 8.86446 12.1148 9.19497 12.3652C9.36098 12.4909 9.50057 12.5892 9.60062 12.6573C9.6507 12.6913 9.69101 12.7179 9.71994 12.7367L9.75465 12.759L9.76526 12.7657L9.76881 12.7679L9.77014 12.7688L9.77069 12.7691C9.77093 12.7693 9.77117 12.7694 10.25 12M10.25 12L10.7156 12.7775L10.2409 13.0618L9.77117 12.7694L10.25 12Z" opacity=".4"/><path fill="#CCE0E5" d="M10.25 3.77295L10.6791 2.97471L10.24 2.7387L9.80559 2.98315L10.25 3.77295ZM10.25 3.77295C10.6791 2.97471 10.6794 2.97486 10.6796 2.97502L10.6803 2.97536L10.6817 2.97613L10.6853 2.97806L10.6951 2.98346L10.7253 3.00037C10.7499 3.01434 10.7834 3.03373 10.8245 3.05846C10.9066 3.10785 11.0198 3.17889 11.1536 3.27083C11.4198 3.45359 11.7764 3.72471 12.136 4.079C12.8384 4.77091 13.6562 5.88559 13.6562 7.35473C13.6562 8.80901 12.8524 9.9824 12.1678 10.7286C11.815 11.113 11.4648 11.4161 11.2031 11.6233C11.0715 11.7274 10.9605 11.8087 10.8802 11.8654C10.8401 11.8938 10.8074 11.9161 10.7836 11.9321L10.7547 11.9514L10.7454 11.9574L10.7421 11.9595L10.7408 11.9604L10.7403 11.9607C10.74 11.9609 10.7398 11.961 10.25 11.1985M10.25 3.77295C9.80559 2.98315 9.80532 2.9833 9.80505 2.98345L9.80445 2.98379L9.80308 2.98456L9.79965 2.98651L9.79007 2.992L9.76043 3.00933C9.73618 3.02368 9.70307 3.04365 9.66236 3.06909C9.58105 3.11989 9.46879 3.19292 9.33586 3.28699C9.07158 3.47402 8.7173 3.75008 8.35992 4.10664C7.66618 4.79879 6.84375 5.91333 6.84375 7.35473C6.84375 8.78071 7.65159 9.95457 8.32874 10.7011C8.67958 11.0879 9.02781 11.3958 9.2879 11.6072C9.41862 11.7134 9.52886 11.7966 9.60841 11.8547C9.64824 11.8837 9.68051 11.9066 9.70397 11.9229L9.73245 11.9426L9.74147 11.9487L9.74463 11.9508L9.74586 11.9516L9.7464 11.952C9.74664 11.9521 9.74687 11.9523 10.25 11.1985M10.25 11.1985L10.7398 11.961L10.2405 12.2818L9.74687 11.9523L10.25 11.1985Z"/><path stroke="#C1C9F1" stroke-opacity=".748" stroke-width="1.813" d="M10.25 3.77295L10.6791 2.97471L10.24 2.7387L9.80559 2.98315L10.25 3.77295ZM10.25 3.77295C10.6791 2.97471 10.6794 2.97486 10.6796 2.97502L10.6803 2.97536L10.6817 2.97613L10.6853 2.97806L10.6951 2.98346L10.7253 3.00037C10.7499 3.01434 10.7834 3.03373 10.8245 3.05846C10.9066 3.10785 11.0198 3.17889 11.1536 3.27083C11.4198 3.45359 11.7764 3.72471 12.136 4.079C12.8384 4.77091 13.6562 5.88559 13.6562 7.35473C13.6562 8.80901 12.8524 9.9824 12.1678 10.7286C11.815 11.113 11.4648 11.4161 11.2031 11.6233C11.0715 11.7274 10.9605 11.8087 10.8802 11.8654C10.8401 11.8938 10.8074 11.9161 10.7836 11.9321L10.7547 11.9514L10.7454 11.9574L10.7421 11.9595L10.7408 11.9604L10.7403 11.9607C10.74 11.9609 10.7398 11.961 10.25 11.1985M10.25 3.77295C9.80559 2.98315 9.80532 2.9833 9.80505 2.98345L9.80445 2.98379L9.80308 2.98456L9.79965 2.98651L9.79007 2.992L9.76043 3.00933C9.73618 3.02368 9.70307 3.04365 9.66236 3.06909C9.58105 3.11989 9.46879 3.19292 9.33586 3.28699C9.07158 3.47402 8.7173 3.75008 8.35992 4.10664C7.66618 4.79879 6.84375 5.91333 6.84375 7.35473C6.84375 8.78071 7.65159 9.95457 8.32874 10.7011C8.67958 11.0879 9.02781 11.3958 9.2879 11.6072C9.41862 11.7134 9.52886 11.7966 9.60841 11.8547C9.64824 11.8837 9.68051 11.9066 9.70397 11.9229L9.73245 11.9426L9.74147 11.9487L9.74463 11.9508L9.74586 11.9516L9.7464 11.952C9.74664 11.9521 9.74687 11.9523 10.25 11.1985M10.25 11.1985L10.7398 11.961L10.2405 12.2818L9.74687 11.9523L10.25 11.1985Z"/><path stroke="#C51918" stroke-width="1.813" d="M10.25 3.77295L10.6791 2.97471L10.24 2.7387L9.80559 2.98315L10.25 3.77295ZM10.25 3.77295C10.6791 2.97471 10.6794 2.97486 10.6796 2.97502L10.6803 2.97536L10.6817 2.97613L10.6853 2.97806L10.6951 2.98346L10.7253 3.00037C10.7499 3.01434 10.7834 3.03373 10.8245 3.05846C10.9066 3.10785 11.0198 3.17889 11.1536 3.27083C11.4198 3.45359 11.7764 3.72471 12.136 4.079C12.8384 4.77091 13.6562 5.88559 13.6562 7.35473C13.6562 8.80901 12.8524 9.9824 12.1678 10.7286C11.815 11.113 11.4648 11.4161 11.2031 11.6233C11.0715 11.7274 10.9605 11.8087 10.8802 11.8654C10.8401 11.8938 10.8074 11.9161 10.7836 11.9321L10.7547 11.9514L10.7454 11.9574L10.7421 11.9595L10.7408 11.9604L10.7403 11.9607C10.74 11.9609 10.7398 11.961 10.25 11.1985M10.25 3.77295C9.80559 2.98315 9.80532 2.9833 9.80505 2.98345L9.80445 2.98379L9.80308 2.98456L9.79965 2.98651L9.79007 2.992L9.76043 3.00933C9.73618 3.02368 9.70307 3.04365 9.66236 3.06909C9.58105 3.11989 9.46879 3.19292 9.33586 3.28699C9.07158 3.47402 8.7173 3.75008 8.35992 4.10664C7.66618 4.79879 6.84375 5.91333 6.84375 7.35473C6.84375 8.78071 7.65159 9.95457 8.32874 10.7011C8.67958 11.0879 9.02781 11.3958 9.2879 11.6072C9.41862 11.7134 9.52886 11.7966 9.60841 11.8547C9.64824 11.8837 9.68051 11.9066 9.70397 11.9229L9.73245 11.9426L9.74147 11.9487L9.74463 11.9508L9.74586 11.9516L9.7464 11.952C9.74664 11.9521 9.74687 11.9523 10.25 11.1985M10.25 11.1985L10.7398 11.961L10.2405 12.2818L9.74687 11.9523L10.25 11.1985Z"/><mask id="316_svg__c" width="6" height="9" x="7" y="3" mask-type="alpha" maskUnits="userSpaceOnUse"><path fill="#fff" d="M10.8322 9.5032C10.6328 9.72055 10.432 9.90655 10.2575 10.0549C10.08 9.90098 9.87489 9.70794 9.67126 9.48343C9.09841 8.85186 8.65625 8.10381 8.65625 7.35473C8.65625 6.62109 9.08382 5.94473 9.64008 5.38975C9.85622 5.17411 10.0744 4.99463 10.258 4.85733C10.4387 4.9892 10.6523 5.16166 10.864 5.3702C11.4116 5.90969 11.8438 6.58591 11.8438 7.35473C11.8438 8.13844 11.3976 8.88695 10.8322 9.5032Z"/><path stroke="#fff" stroke-width="1.813" d="M10.8322 9.5032C10.6328 9.72055 10.432 9.90655 10.2575 10.0549C10.08 9.90098 9.87489 9.70794 9.67126 9.48343C9.09841 8.85186 8.65625 8.10381 8.65625 7.35473C8.65625 6.62109 9.08382 5.94473 9.64008 5.38975C9.85622 5.17411 10.0744 4.99463 10.258 4.85733C10.4387 4.9892 10.6523 5.16166 10.864 5.3702C11.4116 5.90969 11.8438 6.58591 11.8438 7.35473C11.8438 8.13844 11.3976 8.88695 10.8322 9.5032Z"/></mask><g mask="url(#316_svg__c)"><path fill="#91CBCB" d="M8.083 8.75H12.75V9.688H8.083z"/><path fill="#FDF9A1" fill-rule="evenodd" d="M8.50107 9.4987C8.50107 9.4987 11.8098 9.49987 12.114 9.3857C12.4181 9.27152 11.543 11.5779 10.425 11.5779C9.30699 11.5779 8.50107 9.4987 8.50107 9.4987Z" clip-rule="evenodd"/><path fill="#A68861" d="M11.621 9.22191L11.0266 9.67929C10.0898 8.46187 9.69684 7.20246 9.86456 5.91711L10.6083 6.01416C10.4678 7.09074 10.7997 8.15463 11.621 9.22191Z"/><path fill="#239E46" fill-rule="evenodd" d="M10.246 6.02294 9.67895 6.68741C9.65767 6.71234 9.61725 6.69187 9.62476 6.65996L9.81982 5.83148H8.93274C8.8989 5.83148 8.8892 5.7852 8.92019 5.77161L9.6782 5.4393 9.14018 4.73C9.12113 4.70487 9.14705 4.67054 9.17643 4.682L10.0225 5.0118 10.2156 4.23466C10.2235 4.20302 10.2685 4.20305 10.2763 4.23469L10.4684 5.0118 11.3071 4.68525C11.3371 4.67357 11.363 4.7094 11.3426 4.73425L10.7616 5.4393 11.5633 5.77136C11.5948 5.78445 11.5855 5.83148 11.5513 5.83148H10.7616L10.8817 6.67908C10.8861 6.71005 10.8473 6.72755 10.827 6.70375L10.246 6.02294zM9.75 8.125H12.75V8.78125H9.75V8.125z" clip-rule="evenodd"/><path fill="#C51918" fill-rule="evenodd" d="M9.29501 7.74535H9.29201C9.28335 7.77751 9.26218 7.80425 9.22851 7.82558C9.19485 7.84691 9.15135 7.85757 9.09801 7.85757C9.05535 7.85757 9.01618 7.84986 8.98051 7.83444C8.94485 7.81901 8.91435 7.79637 8.88901 7.76651C8.86368 7.73666 8.84385 7.69958 8.82951 7.65528C8.81518 7.61098 8.80801 7.55996 8.80801 7.50221C8.80801 7.44512 8.81501 7.39442 8.82901 7.35012C8.84301 7.30583 8.86301 7.26875 8.88901 7.23889C8.91501 7.20903 8.94635 7.18623 8.98301 7.17048C9.01968 7.15473 9.06035 7.14685 9.10501 7.14685C9.16768 7.14685 9.22001 7.16063 9.26201 7.18819C9.30401 7.21576 9.33635 7.25218 9.35901 7.29746L9.29001 7.3388C9.27401 7.30205 9.25018 7.27318 9.21851 7.25218C9.18685 7.23118 9.14901 7.22068 9.10501 7.22068C9.07435 7.22068 9.04635 7.22609 9.02101 7.23692C8.99568 7.24775 8.97385 7.26301 8.95551 7.28269C8.93718 7.30238 8.92301 7.32601 8.91301 7.35357C8.90301 7.38113 8.89801 7.41198 8.89801 7.4461V7.55733C8.89801 7.59146 8.90301 7.62247 8.91301 7.65036C8.92301 7.67825 8.93718 7.70204 8.95551 7.72173C8.97385 7.74141 8.99635 7.75667 9.02301 7.7675C9.04968 7.77833 9.07968 7.78374 9.11301 7.78374C9.13701 7.78374 9.15985 7.78062 9.18151 7.77439C9.20318 7.76816 9.22218 7.7588 9.23851 7.74633C9.25485 7.73387 9.26768 7.71828 9.27701 7.69958C9.28635 7.68087 9.29101 7.65873 9.29101 7.63313V7.56521H9.13701V7.49237H9.37301V7.84576H9.29501V7.74535ZM9.81701 7.15866V7.58391C9.81701 7.64954 9.82935 7.69925 9.85401 7.73305C9.87868 7.76684 9.92201 7.78374 9.98401 7.78374C10.046 7.78374 10.0893 7.76684 10.114 7.73305C10.1387 7.69925 10.151 7.64954 10.151 7.58391V7.15866H10.235V7.56423C10.235 7.6141 10.2305 7.65741 10.2215 7.69416C10.2125 7.73091 10.198 7.76143 10.178 7.78571C10.158 7.80999 10.1318 7.82804 10.0995 7.83985C10.0672 7.85166 10.0277 7.85757 9.98101 7.85757C9.93435 7.85757 9.89518 7.85166 9.86351 7.83985C9.83185 7.82804 9.80635 7.80999 9.78701 7.78571C9.76768 7.76143 9.75385 7.73091 9.74551 7.69416C9.73718 7.65741 9.73301 7.6141 9.73301 7.56423V7.15866H9.81701ZM11.04 7.84576L10.97 7.64298H10.688L10.618 7.84576H10.533L10.777 7.15866H10.884L11.128 7.84576H11.04ZM10.831 7.23544H10.826L10.708 7.57013H10.949L10.831 7.23544ZM11.988 7.26694H11.983L11.924 7.38212L11.757 7.68137L11.59 7.38212L11.531 7.26694H11.526V7.84576H11.444V7.15866H11.556L11.756 7.52879H11.761L11.962 7.15866H12.07V7.84576H11.988V7.26694Z" clip-rule="evenodd"/></g></g></g></svg>

<svg xmlns="http://www.w3.org/2000/svg" fill="none" viewBox="0 0 20 15"><mask id="316_svg__a" width="20" height="15" x="0" y="0" maskUnits="userSpaceOnUse"><path fill="#fff" d="M0 0h20v15H0z"/></mask><g mask="url(#316_svg__a)"><path fill="#C51918" fill-rule="evenodd" d="M0 0h20v15H0V0z" clip-rule="evenodd"/><path fill="#4564F9" fill-rule="evenodd" d="M2 2h16v11H2V2z" clip-rule="evenodd"/><path stroke="#CBDAFF" stroke-opacity=".12" stroke-width="1.25" d="M2.625 2.625h14.75v9.75H2.625v-9.75z"/><mask id="316_svg__b" width="16" height="11" x="2" y="2" maskUnits="userSpaceOnUse"><path fill="#fff" fill-rule="evenodd" d="M2 2h16v11H2V2z" clip-rule="evenodd"/><path stroke="#fff" stroke-width="1.25" d="M2.625 2.625h14.75v9.75H2.625v-9.75z"/></mask><g mask="url(#316_svg__b)"><path fill="#CCE0E5" stroke="#6D87FB" stroke-width="1.813" d="M10.25 3l.406-.81-.415-.208-.412.216.421.802zm0 0l.407-.81h0l.002.001.004.002.011.006.036.019c.03.016.072.038.123.067a9.147 9.147 0 011.655 1.201c.886.814 1.918 2.124 1.918 3.855 0 1.715-1.016 3.1-1.885 3.982a10.4 10.4 0 01-1.753 1.422l-.035.022-.011.007-.004.002h-.001v.001L10.25 12m0-9l-.422-.802h0-.002l-.003.003-.011.006-.036.02-.122.068a9.584 9.584 0 00-1.646 1.223c-.877.816-1.914 2.127-1.914 3.823 0 1.68 1.02 3.065 1.881 3.95a10.929 10.929 0 001.745 1.446l.035.022.01.007.004.002h.001v.001l.48-.769m0 0l.466.777-.475.285-.47-.292.479-.77z" opacity=".4"/><path fill="#CCE0E5" d="M10.25 3.773l.43-.798-.44-.236-.434.244.444.79zm0 0l.43-.798.002.001.003.002.01.006.03.016.1.059a7.307 7.307 0 011.311 1.02c.702.692 1.52 1.807 1.52 3.276 0 1.454-.804 2.627-1.488 3.374a8.396 8.396 0 01-1.384 1.203l-.03.02-.009.005-.003.003h-.001c-.001 0-.001.001-.491-.761m0-7.426a127.9 127.9 0 00-.445-.79l-.002.002-.003.002-.01.005-.03.017a6.89 6.89 0 00-.425.278 7.667 7.667 0 00-.975.82c-.694.692-1.516 1.806-1.516 3.248 0 1.426.808 2.6 1.485 3.346a8.803 8.803 0 001.375 1.222l.028.02.01.006.003.002.001.001.504-.753m0 0l.49.762-.5.32-.493-.329.503-.753z"/><path stroke="#C1C9F1" stroke-opacity=".748" stroke-width="1.813" d="M10.25 3.773l.43-.798-.44-.236-.434.244.444.79zm0 0l.43-.798h0l.002.001.003.002.01.006.03.016.1.059a7.307 7.307 0 011.311 1.02c.702.692 1.52 1.807 1.52 3.276 0 1.454-.804 2.627-1.488 3.374a8.396 8.396 0 01-1.384 1.203l-.03.02-.009.005-.003.003h-.001 0c-.001 0-.001.001-.491-.761m0-7.426a127.9 127.9 0 00-.445-.79h0l-.002.002-.003.002-.01.005-.03.017a6.89 6.89 0 00-.425.278 7.667 7.667 0 00-.975.82c-.694.692-1.516 1.806-1.516 3.248 0 1.426.808 2.6 1.485 3.346a8.803 8.803 0 001.375 1.222l.028.02.01.006.003.002h0l.001.001.504-.753m0 0l.49.762-.5.32-.493-.329.503-.753z"/><path stroke="#C51918" stroke-width="1.813" d="M10.25 3.773l.43-.798-.44-.236-.434.244.444.79zm0 0l.43-.798h0l.002.001.003.002.01.006.03.016.1.059a7.307 7.307 0 011.311 1.02c.702.692 1.52 1.807 1.52 3.276 0 1.454-.804 2.627-1.488 3.374a8.396 8.396 0 01-1.384 1.203l-.03.02-.009.005-.003.003h-.001 0c-.001 0-.001.001-.491-.761m0-7.426a127.9 127.9 0 00-.445-.79h0l-.002.002-.003.002-.01.005-.03.017a6.89 6.89 0 00-.425.278 7.667 7.667 0 00-.975.82c-.694.692-1.516 1.806-1.516 3.248 0 1.426.808 2.6 1.485 3.346a8.803 8.803 0 001.375 1.222l.028.02.01.006.003.002h0l.001.001.504-.753m0 0l.49.762-.5.32-.493-.329.503-.753z"/><mask id="316_svg__c" width="6" height="9" x="7" y="3" maskUnits="userSpaceOnUse"><path fill="#fff" d="M10.832 9.503c-.2.218-.4.404-.575.552a6.903 6.903 0 01-.586-.572c-.573-.631-1.015-1.38-1.015-2.128 0-.734.428-1.41.984-1.965.216-.216.434-.395.618-.533.18.132.394.305.606.513.548.54.98 1.216.98 1.985 0 .783-.446 1.532-1.012 2.148z"/><path stroke="#fff" stroke-width="1.813" d="M10.832 9.503c-.2.218-.4.404-.575.552a6.903 6.903 0 01-.586-.572c-.573-.631-1.015-1.38-1.015-2.128 0-.734.428-1.41.984-1.965.216-.216.434-.395.618-.533.18.132.394.305.606.513.548.54.98 1.216.98 1.985 0 .783-.446 1.532-1.012 2.148z"/></mask><g mask="url(#316_svg__c)"><path fill="#91CBCB" d="M8.083 8.75h4.667v.938H8.083z"/><path fill="#FDF9A1" fill-rule="evenodd" d="M8.501 9.499s3.309 0 3.613-.113c.304-.114-.571 2.192-1.689 2.192s-1.924-2.08-1.924-2.08z" clip-rule="evenodd"/><path fill="#A68861" d="M11.621 9.222l-.594.457c-.937-1.217-1.33-2.477-1.162-3.762l.743.097c-.14 1.077.192 2.14 1.013 3.208z"/><path fill="#239E46" fill-rule="evenodd" d="M10.246 6.023l-.567.664c-.021.025-.062.005-.054-.027l.195-.829h-.887c-.034 0-.044-.046-.013-.06l.758-.332-.538-.709c-.019-.025.007-.06.036-.048l.847.33.193-.777c.008-.032.053-.032.06 0l.192.777.84-.327c.03-.011.055.024.035.05l-.581.704.801.332c.032.013.022.06-.012.06h-.79l.12.848c.005.031-.034.049-.054.025l-.581-.681zM9.75 8.125h3v.656h-3v-.656z" clip-rule="evenodd"/><path fill="#C51918" fill-rule="evenodd" d="M9.295 7.745h-.003a.137.137 0 01-.063.08.24.24 0 01-.131.033.293.293 0 01-.117-.024.247.247 0 01-.092-.067.324.324 0 01-.06-.112.497.497 0 01-.021-.153c0-.057.007-.108.021-.152a.309.309 0 01.06-.111.258.258 0 01.094-.068.306.306 0 01.122-.024.28.28 0 01.157.041.276.276 0 01.097.11l-.069.04a.194.194 0 00-.071-.086.2.2 0 00-.114-.031.212.212 0 00-.084.016.191.191 0 00-.108.117.27.27 0 00-.015.092v.111c0 .034.005.065.015.093a.187.187 0 00.11.117.247.247 0 00.159.007.17.17 0 00.057-.028.132.132 0 00.052-.113v-.068h-.154v-.073h.236v.354h-.078v-.1zm.522-.586v.425c0 .066.012.115.037.15.025.033.068.05.13.05s.105-.017.13-.05a.251.251 0 00.037-.15v-.425h.084v.405c0 .05-.005.093-.013.13a.226.226 0 01-.044.092.179.179 0 01-.079.054.347.347 0 01-.118.018.339.339 0 01-.117-.018.172.172 0 01-.077-.054.224.224 0 01-.041-.092.594.594 0 01-.013-.13V7.16h.084zm1.223.687l-.07-.203h-.282l-.07.203h-.085l.244-.687h.107l.244.687h-.088zm-.209-.61h-.005l-.118.334h.241l-.118-.335zm1.157.031h-.005l-.059.115-.167.3-.167-.3-.059-.115h-.005v.579h-.082v-.687h.112l.2.37h.005l.201-.37h.108v.687h-.082v-.579z" clip-rule="evenodd"/></g></g></g></svg>
